X:32
T: Fürjecském, fürjecském
O: (Udvarhely)
Q: "Tempo guisto"
M:2/4
L:1/4
K:F
A/G/ A | A/G/ A | 
c/d/c/B/ | A C | 
F/G/A | G/E/ C | 
F/F/E/E/ | D D/ z/ | 

